src/main/resources/images/help_dark.svg

<svg xmlns="http://www.w3.org/2000/svg" width="16" height="16"><path fill="#AFB1B3" d="M7 14h2v-2H7zM8 2C5.79 2 4 3.79 4 6h2c0-1.1.9-2 2-2s2 .9 2 2c0 2-3 1.75-3 5h2c0-2.25 3-2.5 3-5 0-2.21-1.79-4-4-4"/></svg>

<!-- Copyright 2000-2021 JetBrains s.r.o. and contributors. Use of this source code is governed by the Apache 2.0 license that can be found in the LICENSE file. -->
<svg xmlns="http://www.w3.org/2000/svg" width="16" height="16" viewBox="0 0 16 16">
    <path fill="#AFB1B3"
          d="M7,14 L9,14 L9,12 L7,12 L7,14 Z M8,2 C5.79,2 4,3.79 4,6 L6,6 C6,4.9 6.9,4 8,4 C9.1,4 10,4.9 10,6 C10,8 7,7.75 7,11 L9,11 C9,8.75 12,8.5 12,6 C12,3.79 10.21,2 8,2 Z"/>
</svg>
